austria/municipalities/70215.svg

<?xml version="1.0" encoding="UTF-8"?>
<!DOCTYPE svg PUBLIC "-//W3C//DTD SVG 1.1//EN" "http://www.w3.org/Graphics/SVG/1.1/DTD/svg11.dtd">
<svg xmlns="http://www.w3.org/2000/svg" version="1.1" width="166px" height="192px" style="shape-rendering:geometricPrecision; text-rendering:geometricPrecision; image-rendering:optimizeQuality; fill-rule:evenodd; clip-rule:evenodd" xmlns:xlink="http://www.w3.org/1999/xlink">
<g><path style="opacity:1" fill="#060906" d="M -0.5,-0.5 C 54.8333,-0.5 110.167,-0.5 165.5,-0.5C 165.5,39.1667 165.5,78.8333 165.5,118.5C 157.376,159.624 132.709,183.957 91.5,191.5C 84.8333,191.5 78.1667,191.5 71.5,191.5C 30.4674,182.802 6.46741,157.802 -0.5,116.5C -0.5,77.5 -0.5,38.5 -0.5,-0.5 Z"/></g>
<g><path style="opacity:1" fill="#185b2a" d="M 3.5,3.5 C 56.1667,3.5 108.833,3.5 161.5,3.5C 161.667,41.8348 161.5,80.1681 161,118.5C 155.517,150.975 137.35,172.809 106.5,184C 63.1233,194.057 30.9566,179.557 10,140.5C 7.05805,132.732 5.05805,124.732 4,116.5C 3.50001,78.8348 3.33335,41.1681 3.5,3.5 Z"/></g>
<g><path style="opacity:1" fill="#121611" d="M 80.5,6.5 C 85.1585,6.01463 86.4919,7.84796 84.5,12C 80.2662,12.267 78.9329,10.4336 80.5,6.5 Z"/></g>
<g><path style="opacity:1" fill="#fefffe" d="M 81.5,8.5 C 83.337,8.63945 83.6704,9.30612 82.5,10.5C 81.7025,10.0431 81.3691,9.37644 81.5,8.5 Z"/></g>
<g><path style="opacity:1" fill="#212121" d="M 80.5,13.5 C 82.1667,13.5 83.8333,13.5 85.5,13.5C 85.5,14.8333 85.5,16.1667 85.5,17.5C 83.5,17.5 81.5,17.5 79.5,17.5C 79.4326,16.0413 79.7659,14.7079 80.5,13.5 Z"/></g>
<g><path style="opacity:1" fill="#0e120e" d="M 80.5,18.5 C 86.7435,17.928 89.9102,20.5946 90,26.5C 88.786,28.0488 87.286,29.2155 85.5,30C 88.218,32.0912 90.218,34.7579 91.5,38C 85.8041,38.8299 80.1375,38.6632 74.5,37.5C 75.56,34.5324 77.2267,32.0324 79.5,30C 72.7313,25.57 73.0646,21.7366 80.5,18.5 Z"/></g>
<g><path style="opacity:1" fill="#fafaf9" d="M 79.5,20.5 C 82.3198,20.2475 84.9865,20.7475 87.5,22C 89.2213,26.4686 87.5546,28.6353 82.5,28.5C 75.9455,27.5746 74.9455,24.908 79.5,20.5 Z"/></g>
<g><path style="opacity:1" fill="#10130f" d="M 25.5,31.5 C 26.9663,32.347 27.7996,33.6803 28,35.5C 30.6628,45.817 33.1628,56.1503 35.5,66.5C 29.1667,66.5 22.8333,66.5 16.5,66.5C 18.8915,54.6621 21.8915,42.9954 25.5,31.5 Z"/></g>
<g><path style="opacity:1" fill="#faf9f9" d="M 78.5,32.5 C 81.1873,32.3359 83.854,32.5026 86.5,33C 87.2931,34.0852 87.9598,35.2519 88.5,36.5C 84.5,37.8333 80.5,37.8333 76.5,36.5C 77.6302,35.3777 78.2969,34.0443 78.5,32.5 Z"/></g>
<g><path style="opacity:1" fill="#f1f1f1" d="M 25.5,36.5 C 28.9204,45.8364 31.5871,55.5031 33.5,65.5C 28.5,65.5 23.5,65.5 18.5,65.5C 20.6267,55.7859 22.9601,46.1192 25.5,36.5 Z"/></g>
<g><path style="opacity:1" fill="#111511" d="M 138.5,31.5 C 140.311,33.3854 141.478,35.7187 142,38.5C 144.689,47.728 146.855,57.0613 148.5,66.5C 142.167,66.5 135.833,66.5 129.5,66.5C 132.305,54.7581 135.305,43.0914 138.5,31.5 Z"/></g>
<g><path style="opacity:1" fill="#f2f1f1" d="M 138.5,35.5 C 142.151,45.1372 144.817,55.1372 146.5,65.5C 141.456,65.8275 136.456,65.4941 131.5,64.5C 134.308,54.9345 136.641,45.2678 138.5,35.5 Z"/></g>
<g><path style="opacity:1" fill="#17391c" d="M 74.5,40.5 C 74.5,55.8333 74.5,71.1667 74.5,86.5C 73.8333,86.5 73.1667,86.5 72.5,86.5C 72.5,74.8333 72.5,63.1667 72.5,51.5C 73.1667,47.8333 73.8333,44.1667 74.5,40.5 Z"/></g>
<g><path style="opacity:1" fill="#090d09" d="M 74.5,40.5 C 80.1667,40.5 85.8333,40.5 91.5,40.5C 91.5,55.8333 91.5,71.1667 91.5,86.5C 85.8333,86.5 80.1667,86.5 74.5,86.5C 74.5,71.1667 74.5,55.8333 74.5,40.5 Z"/></g>
<g><path style="opacity:1" fill="#fefefe" d="M 75.5,42.5 C 77.7354,42.2053 79.7354,42.5386 81.5,43.5C 80.1667,43.5 79.5,44.1667 79.5,45.5C 78.5318,47.6074 78.1984,49.9407 78.5,52.5C 81.1667,52.5 83.8333,52.5 86.5,52.5C 86.8064,49.6146 86.4731,46.9479 85.5,44.5C 85.5,43.8333 85.1667,43.5 84.5,43.5C 85.9187,42.5489 87.5853,42.2155 89.5,42.5C 89.5,56.8333 89.5,71.1667 89.5,85.5C 84.8333,85.5 80.1667,85.5 75.5,85.5C 75.5,71.1667 75.5,56.8333 75.5,42.5 Z"/></g>
<g><path style="opacity:1" fill="#8f8c89" d="M 75.5,42.5 C 80.1667,41.1667 84.8333,41.1667 89.5,42.5C 87.5853,42.2155 85.9187,42.5489 84.5,43.5C 83.5,42.1667 82.5,42.1667 81.5,43.5C 79.7354,42.5386 77.7354,42.2053 75.5,42.5 Z"/></g>
<g><path style="opacity:1" fill="#121111" d="M 84.5,43.5 C 85.1667,43.5 85.5,43.8333 85.5,44.5C 85.5,46.8333 85.5,49.1667 85.5,51.5C 83.5,51.5 81.5,51.5 79.5,51.5C 79.5,49.5 79.5,47.5 79.5,45.5C 79.5,44.1667 80.1667,43.5 81.5,43.5C 82.5,42.1667 83.5,42.1667 84.5,43.5 Z"/></g>
<g><path style="opacity:1" fill="#fdfdfd" d="M 81.5,44.5 C 82.4959,44.4142 83.3292,44.7476 84,45.5C 84.4935,47.1341 84.6602,48.8008 84.5,50.5C 83.1667,50.5 81.8333,50.5 80.5,50.5C 80.3253,48.3792 80.6586,46.3792 81.5,44.5 Z"/></g>
<g><path style="opacity:1" fill="#5a5754" d="M 85.5,44.5 C 86.4731,46.9479 86.8064,49.6146 86.5,52.5C 83.8333,52.5 81.1667,52.5 78.5,52.5C 78.1984,49.9407 78.5318,47.6074 79.5,45.5C 79.5,47.5 79.5,49.5 79.5,51.5C 81.5,51.5 83.5,51.5 85.5,51.5C 85.5,49.1667 85.5,46.8333 85.5,44.5 Z"/></g>
<g><path style="opacity:1" fill="#10110f" d="M 92.5,50.5 C 98.0673,54.2224 103.234,58.5557 108,63.5C 108.5,71.1594 108.666,78.8261 108.5,86.5C 103.167,86.5 97.8333,86.5 92.5,86.5C 92.5,74.5 92.5,62.5 92.5,50.5 Z"/></g>
<g><path style="opacity:1" fill="#8e8a87" d="M 95.5,54.5 C 94.5058,64.6532 94.1724,74.9865 94.5,85.5C 93.1765,74.9927 93.1765,64.3261 94.5,53.5C 95.1067,53.6236 95.44,53.9569 95.5,54.5 Z"/></g>
<g><path style="opacity:1" fill="#fdfdfd" d="M 95.5,54.5 C 98.8332,57.6645 102.333,60.6645 106,63.5C 106.5,70.8258 106.666,78.1591 106.5,85.5C 102.5,85.5 98.5,85.5 94.5,85.5C 94.1724,74.9865 94.5058,64.6532 95.5,54.5 Z"/></g>
<g><path style="opacity:1" fill="#0c100b" d="M 72.5,51.5 C 72.5,63.1667 72.5,74.8333 72.5,86.5C 67.1667,86.5 61.8333,86.5 56.5,86.5C 56.3336,78.8261 56.5003,71.1594 57,63.5C 62,59.1667 67,54.8333 72,50.5C 72.3988,50.7284 72.5654,51.0618 72.5,51.5 Z"/></g>
<g><path style="opacity:1" fill="#fdfdfd" d="M 70.5,53.5 C 71.4944,63.9869 71.8278,74.6536 71.5,85.5C 67.1667,85.5 62.8333,85.5 58.5,85.5C 58.3337,78.1591 58.5003,70.8258 59,63.5C 63.0261,60.3016 66.8595,56.9683 70.5,53.5 Z"/></g>
<g><path style="opacity:1" fill="#000000" d="M 16.5,68.5 C 22.8333,68.5 29.1667,68.5 35.5,68.5C 35.5,90.8333 35.5,113.167 35.5,135.5C 29.1667,135.5 22.8333,135.5 16.5,135.5C 16.5,113.167 16.5,90.8333 16.5,68.5 Z"/></g>
<g><path style="opacity:1" fill="#161615" d="M 129.5,68.5 C 135.833,68.5 142.167,68.5 148.5,68.5C 148.5,90.8333 148.5,113.167 148.5,135.5C 142.167,135.5 135.833,135.5 129.5,135.5C 129.5,113.167 129.5,90.8333 129.5,68.5 Z"/></g>
<g><path style="opacity:1" fill="#fdfdfd" d="M 33.5,69.5 C 33.5,90.8333 33.5,112.167 33.5,133.5C 28.1667,133.5 22.8333,133.5 17.5,133.5C 17.5,112.167 17.5,90.8333 17.5,69.5C 22.8333,69.5 28.1667,69.5 33.5,69.5 Z"/></g>
<g><path style="opacity:1" fill="#fefefe" d="M 131.5,69.5 C 136.833,69.5 142.167,69.5 147.5,69.5C 147.5,90.8333 147.5,112.167 147.5,133.5C 142.167,133.5 136.833,133.5 131.5,133.5C 131.5,112.167 131.5,90.8333 131.5,69.5 Z"/></g>
<g><path style="opacity:1" fill="#0d0c0c" d="M 24.5,76.5 C 26.3904,76.2965 27.8904,76.9632 29,78.5C 29.4988,82.4862 29.6655,86.4862 29.5,90.5C 27.1667,90.5 24.8333,90.5 22.5,90.5C 21.962,85.5329 22.6287,80.8662 24.5,76.5 Z"/></g>
<g><path style="opacity:1" fill="#e3e2e1" d="M 24.5,78.5 C 27.7749,79.019 29.1083,81.019 28.5,84.5C 29.1571,88.5095 27.4905,90.1762 23.5,89.5C 23.3227,85.7657 23.6561,82.0991 24.5,78.5 Z"/></g>
<g><path style="opacity:1" fill="#201f1e" d="M 137.5,76.5 C 139.993,76.3291 141.826,77.3291 143,79.5C 143.499,83.1516 143.665,86.8183 143.5,90.5C 140.833,90.5 138.167,90.5 135.5,90.5C 134.962,85.5329 135.629,80.8662 137.5,76.5 Z"/></g>
<g><path style="opacity:1" fill="#fefefe" d="M 138.5,78.5 C 139.496,78.4142 140.329,78.7476 141,79.5C 141.498,82.4816 141.665,85.4816 141.5,88.5C 140.167,88.5 138.833,88.5 137.5,88.5C 137.253,85.0613 137.586,81.728 138.5,78.5 Z"/></g>
<g><path style="opacity:1" fill="#141613" d="M 37.5,92.5 C 47.5056,92.3335 57.5056,92.5002 67.5,93C 71.7084,99.9179 76.0418,106.751 80.5,113.5C 66.1821,114.499 51.8488,114.833 37.5,114.5C 37.5,107.167 37.5,99.8333 37.5,92.5 Z"/></g>
<g><path style="opacity:1" fill="#f9f8f8" d="M 39.5,93.5 C 48.5246,93.1685 57.5246,93.5018 66.5,94.5C 70.0416,100.418 73.7083,106.251 77.5,112C 64.8377,112.5 52.1711,112.667 39.5,112.5C 39.5,106.167 39.5,99.8333 39.5,93.5 Z"/></g>
<g><path style="opacity:1" fill="#141413" d="M 97.5,92.5 C 107.5,92.5 117.5,92.5 127.5,92.5C 127.5,99.8333 127.5,107.167 127.5,114.5C 113.5,114.5 99.5,114.5 85.5,114.5C 89.0533,106.941 93.0533,99.6072 97.5,92.5 Z"/></g>
<g><path style="opacity:1" fill="#5c5956" d="M 99.5,94.5 C 108.318,93.5067 117.318,93.1734 126.5,93.5C 126.823,100.022 126.49,106.355 125.5,112.5C 125.5,106.5 125.5,100.5 125.5,94.5C 116.833,94.5 108.167,94.5 99.5,94.5 Z"/></g>
<g><path style="opacity:1" fill="#fefefe" d="M 99.5,94.5 C 108.167,94.5 116.833,94.5 125.5,94.5C 125.5,100.5 125.5,106.5 125.5,112.5C 112.829,112.667 100.162,112.5 87.5,112C 91.363,105.988 95.363,100.155 99.5,94.5 Z"/></g>
<g><path style="opacity:1" fill="#151714" d="M 37.5,115.5 C 51.8333,115.5 66.1667,115.5 80.5,115.5C 80.5,122.167 80.5,128.833 80.5,135.5C 66.1667,135.5 51.8333,135.5 37.5,135.5C 37.5,128.833 37.5,122.167 37.5,115.5 Z"/></g>
<g><path style="opacity:1" fill="#181917" d="M 85.5,115.5 C 99.5,115.5 113.5,115.5 127.5,115.5C 127.5,122.167 127.5,128.833 127.5,135.5C 113.5,135.5 99.5,135.5 85.5,135.5C 85.5,128.833 85.5,122.167 85.5,115.5 Z"/></g>
<g><path style="opacity:1" fill="#fbfbfb" d="M 39.5,117.5 C 52.5,117.5 65.5,117.5 78.5,117.5C 78.5,122.833 78.5,128.167 78.5,133.5C 65.5,133.5 52.5,133.5 39.5,133.5C 39.5,128.167 39.5,122.833 39.5,117.5 Z"/></g>
<g><path style="opacity:1" fill="#fbfbfb" d="M 86.5,117.5 C 99.5,117.5 112.5,117.5 125.5,117.5C 125.5,122.833 125.5,128.167 125.5,133.5C 112.5,133.5 99.5,133.5 86.5,133.5C 86.5,128.167 86.5,122.833 86.5,117.5 Z"/></g>
<g><path style="opacity:1" fill="#fdfdfd" d="M -0.5,116.5 C 6.46741,157.802 30.4674,182.802 71.5,191.5C 47.5,191.5 23.5,191.5 -0.5,191.5C -0.5,166.5 -0.5,141.5 -0.5,116.5 Z"/></g>
<g><path style="opacity:1" fill="#fdfdfd" d="M 165.5,118.5 C 165.5,142.833 165.5,167.167 165.5,191.5C 140.833,191.5 116.167,191.5 91.5,191.5C 132.709,183.957 157.376,159.624 165.5,118.5 Z"/></g>
<g><path style="opacity:1" fill="#080907" d="M 109.5,120.5 C 111.467,120.261 113.301,120.594 115,121.5C 115.498,124.817 115.665,128.15 115.5,131.5C 113.167,131.5 110.833,131.5 108.5,131.5C 108.244,127.731 108.577,124.064 109.5,120.5 Z"/></g>
<g><path style="opacity:1" fill="#f7f7f6" d="M 113.5,123.5 C 113.5,125.5 113.5,127.5 113.5,129.5C 112.5,129.5 111.5,129.5 110.5,129.5C 110.5,127.167 110.5,124.833 110.5,122.5C 111.947,121.115 112.947,121.448 113.5,123.5 Z"/></g>
<g><path style="opacity:1" fill="#1b1a19" d="M 50.5,120.5 C 52.4672,120.261 54.3005,120.594 56,121.5C 56.4983,124.817 56.665,128.15 56.5,131.5C 54.1667,131.5 51.8333,131.5 49.5,131.5C 49.3227,127.766 49.6561,124.099 50.5,120.5 Z"/></g>
<g><path style="opacity:1" fill="#fbfbfb" d="M 52.5,121.5 C 53.4959,121.414 54.3292,121.748 55,122.5C 55.4966,124.81 55.6633,127.143 55.5,129.5C 54.1667,129.5 52.8333,129.5 51.5,129.5C 51.2786,126.721 51.612,124.054 52.5,121.5 Z"/></g>
<g><path style="opacity:1" fill="#64605e" d="M 110.5,122.5 C 110.5,124.833 110.5,127.167 110.5,129.5C 111.5,129.5 112.5,129.5 113.5,129.5C 113.5,127.5 113.5,125.5 113.5,123.5C 114.468,125.607 114.802,127.941 114.5,130.5C 112.833,130.5 111.167,130.5 109.5,130.5C 109.194,127.615 109.527,124.948 110.5,122.5 Z"/></g>
<g><path style="opacity:1" fill="#0b0c0b" d="M 66.5,119.5 C 67.7206,120.028 68.8873,120.695 70,121.5C 70.4983,124.817 70.665,128.15 70.5,131.5C 68.1667,131.5 65.8333,131.5 63.5,131.5C 63.335,128.15 63.5017,124.817 64,121.5C 64.9947,120.934 65.828,120.267 66.5,119.5 Z"/></g>
<g><path style="opacity:1" fill="#625f5d" d="M 68.5,122.5 C 69.4731,124.948 69.8064,127.615 69.5,130.5C 67.8333,130.5 66.1667,130.5 64.5,130.5C 64.1984,127.941 64.5318,125.607 65.5,123.5C 65.5,125.5 65.5,127.5 65.5,129.5C 66.5,129.5 67.5,129.5 68.5,129.5C 68.5,127.167 68.5,124.833 68.5,122.5 Z"/></g>
<g><path style="opacity:1" fill="#f7f7f6" d="M 68.5,122.5 C 68.5,124.833 68.5,127.167 68.5,129.5C 67.5,129.5 66.5,129.5 65.5,129.5C 65.5,127.5 65.5,125.5 65.5,123.5C 66.0527,121.448 67.0527,121.115 68.5,122.5 Z"/></g>
<g><path style="opacity:1" fill="#191817" d="M 97.5,119.5 C 98.7206,120.028 99.8873,120.695 101,121.5C 101.498,124.817 101.665,128.15 101.5,131.5C 99.1667,131.5 96.8333,131.5 94.5,131.5C 94.335,128.15 94.5017,124.817 95,121.5C 95.9947,120.934 96.828,120.267 97.5,119.5 Z"/></g>
<g><path style="opacity:1" fill="#fbfbfb" d="M 97.5,121.5 C 98.7498,121.577 99.5831,122.244 100,123.5C 100.495,125.473 100.662,127.473 100.5,129.5C 99.1667,129.5 97.8333,129.5 96.5,129.5C 96.2786,126.721 96.612,124.054 97.5,121.5 Z"/></g>
<g><path style="opacity:1" fill="#625e5c" d="M 33.5,69.5 C 34.4973,90.9936 34.8307,112.66 34.5,134.5C 28.642,134.822 22.9753,134.489 17.5,133.5C 22.8333,133.5 28.1667,133.5 33.5,133.5C 33.5,112.167 33.5,90.8333 33.5,69.5 Z"/></g>
</svg>

<svg xmlns="http://www.w3.org/2000/svg" width="166" height="192" style="shape-rendering:geometricPrecision;text-rendering:geometricPrecision;image-rendering:optimizeQuality;fill-rule:evenodd;clip-rule:evenodd"><path style="opacity:1" fill="#060906" d="M-.5-.5h166v119c-8.124 41.124-32.791 65.457-74 73h-20c-41.033-8.698-65.033-33.698-72-75V-.5z"/><path style="opacity:1" fill="#185b2a" d="M3.5 3.5h158c.167 38.335 0 76.668-.5 115-5.483 32.475-23.65 54.309-54.5 65.5-43.377 10.057-75.543-4.443-96.5-43.5a105.508 105.508 0 0 1-6-24c-.5-37.665-.667-75.332-.5-113z"/><path style="opacity:1" fill="#121611" d="M80.5 6.5c4.659-.485 5.992 1.348 4 5.5-4.234.267-5.567-1.566-4-5.5z"/><path style="opacity:1" fill="#fefffe" d="M81.5 8.5c1.837.14 2.17.806 1 2-.797-.457-1.13-1.124-1-2z"/><path style="opacity:1" fill="#212121" d="M80.5 13.5h5v4h-6c-.067-1.459.266-2.792 1-4z"/><path style="opacity:1" fill="#0e120e" d="M80.5 18.5c6.243-.572 9.41 2.095 9.5 8a11.529 11.529 0 0 1-4.5 3.5c2.718 2.091 4.718 4.758 6 8a48.728 48.728 0 0 1-17-.5c1.06-2.968 2.727-5.468 5-7.5-6.769-4.43-6.435-8.263 1-11.5z"/><path style="opacity:1" fill="#fafaf9" d="M79.5 20.5c2.82-.253 5.487.247 8 1.5 1.721 4.469.055 6.635-5 6.5-6.555-.925-7.555-3.592-3-8z"/><path style="opacity:1" fill="#10130f" d="M25.5 31.5c1.466.847 2.3 2.18 2.5 4a1046.1 1046.1 0 0 1 7.5 31h-19a344.66 344.66 0 0 1 9-35z"/><path style="opacity:1" fill="#faf9f9" d="M78.5 32.5a32.437 32.437 0 0 1 8 .5 18.088 18.088 0 0 1 2 3.5c-4 1.333-8 1.333-12 0 1.13-1.122 1.797-2.456 2-4z"/><path style="opacity:1" fill="#f1f1f1" d="M25.5 36.5c3.42 9.336 6.087 19.003 8 29h-15a699.878 699.878 0 0 1 7-29z"/><path style="opacity:1" fill="#111511" d="M138.5 31.5c1.811 1.885 2.978 4.219 3.5 7a258.903 258.903 0 0 1 6.5 28h-19a1048.585 1048.585 0 0 1 9-35z"/><path style="opacity:1" fill="#f2f1f1" d="M138.5 35.5c3.651 9.637 6.317 19.637 8 30a57.124 57.124 0 0 1-15-1 306.032 306.032 0 0 0 7-29z"/><path style="opacity:1" fill="#17391c" d="M74.5 40.5v46h-2v-35l2-11z"/><path style="opacity:1" fill="#090d09" d="M74.5 40.5h17v46h-17v-46z"/><path style="opacity:1" fill="#fefefe" d="M75.5 42.5c2.235-.295 4.235.039 6 1-1.333 0-2 .667-2 2-.968 2.107-1.302 4.44-1 7h8c.306-2.885-.027-5.552-1-8 0-.667-.333-1-1-1 1.419-.951 3.085-1.285 5-1v43h-14v-43z"/><path style="opacity:1" fill="#8f8c89" d="M75.5 42.5c4.667-1.333 9.333-1.333 14 0-1.915-.285-3.581.049-5 1-1-1.333-2-1.333-3 0-1.765-.961-3.765-1.295-6-1z"/><path style="opacity:1" fill="#121111" d="M84.5 43.5c.667 0 1 .333 1 1v7h-6v-6c0-1.333.667-2 2-2 1-1.333 2-1.333 3 0z"/><path style="opacity:1" fill="#fdfdfd" d="M81.5 44.5c.996-.086 1.83.248 2.5 1 .493 1.634.66 3.3.5 5h-4c-.175-2.12.159-4.12 1-6z"/><path style="opacity:1" fill="#5a5754" d="M85.5 44.5c.973 2.448 1.306 5.115 1 8h-8c-.302-2.56.032-4.893 1-7v6h6v-7z"/><path style="opacity:1" fill="#10110f" d="M92.5 50.5c5.567 3.722 10.734 8.056 15.5 13 .5 7.66.666 15.326.5 23h-16v-36z"/><path style="opacity:1" fill="#8e8a87" d="M95.5 54.5c-.994 10.153-1.328 20.487-1 31-1.323-10.507-1.323-21.174 0-32 .607.124.94.457 1 1z"/><path style="opacity:1" fill="#fdfdfd" d="M95.5 54.5a136.588 136.588 0 0 0 10.5 9c.5 7.326.666 14.66.5 22h-12c-.328-10.513.006-20.847 1-31z"/><path style="opacity:1" fill="#0c100b" d="M72.5 51.5v35h-16c-.166-7.674 0-15.34.5-23l15-13c.399.228.565.562.5 1z"/><path style="opacity:1" fill="#fdfdfd" d="M70.5 53.5c.994 10.487 1.328 21.154 1 32h-13c-.166-7.34 0-14.674.5-22a169.597 169.597 0 0 0 11.5-10z"/><path style="opacity:1" d="M16.5 68.5h19v67h-19v-67z"/><path style="opacity:1" fill="#161615" d="M129.5 68.5h19v67h-19v-67z"/><path style="opacity:1" fill="#fdfdfd" d="M33.5 69.5v64h-16v-64h16z"/><path style="opacity:1" fill="#fefefe" d="M131.5 69.5h16v64h-16v-64z"/><path style="opacity:1" fill="#0d0c0c" d="M24.5 76.5c1.89-.204 3.39.463 4.5 2 .499 3.986.666 7.986.5 12h-7c-.538-4.967.129-9.634 2-14z"/><path style="opacity:1" fill="#e3e2e1" d="M24.5 78.5c3.275.519 4.608 2.519 4 6 .657 4.01-1.01 5.676-5 5-.177-3.734.156-7.4 1-11z"/><path style="opacity:1" fill="#201f1e" d="M137.5 76.5c2.493-.17 4.326.83 5.5 3a60.93 60.93 0 0 1 .5 11h-8c-.538-4.967.129-9.634 2-14z"/><path style="opacity:1" fill="#fefefe" d="M138.5 78.5c.996-.086 1.829.248 2.5 1 .498 2.982.665 5.982.5 9h-4c-.247-3.439.086-6.772 1-10z"/><path style="opacity:1" fill="#141613" d="M37.5 92.5c10.006-.166 20.006 0 30 .5a651.713 651.713 0 0 0 13 20.5 463.088 463.088 0 0 1-43 1v-22z"/><path style="opacity:1" fill="#f9f8f8" d="M39.5 93.5c9.025-.332 18.025.002 27 1a472.134 472.134 0 0 0 11 17.5c-12.662.5-25.329.667-38 .5v-19z"/><path style="opacity:1" fill="#141413" d="M97.5 92.5h30v22h-42a209.383 209.383 0 0 1 12-22z"/><path style="opacity:1" fill="#5c5956" d="M99.5 94.5c8.818-.993 17.818-1.327 27-1 .323 6.522-.01 12.855-1 19v-18h-26z"/><path style="opacity:1" fill="#fefefe" d="M99.5 94.5h26v18c-12.671.167-25.338 0-38-.5a350.84 350.84 0 0 1 12-17.5z"/><path style="opacity:1" fill="#151714" d="M37.5 115.5h43v20h-43v-20z"/><path style="opacity:1" fill="#181917" d="M85.5 115.5h42v20h-42v-20z"/><path style="opacity:1" fill="#fbfbfb" d="M39.5 117.5h39v16h-39v-16zM86.5 117.5h39v16h-39v-16z"/><path style="opacity:1" fill="#fdfdfd" d="M-.5 116.5c6.967 41.302 30.967 66.302 72 75h-72v-75zM165.5 118.5v73h-74c41.209-7.543 65.876-31.876 74-73z"/><path style="opacity:1" fill="#080907" d="M109.5 120.5c1.967-.239 3.801.094 5.5 1 .498 3.317.665 6.65.5 10h-7c-.256-3.769.077-7.436 1-11z"/><path style="opacity:1" fill="#f7f7f6" d="M113.5 123.5v6h-3v-7c1.447-1.385 2.447-1.052 3 1z"/><path style="opacity:1" fill="#1b1a19" d="M50.5 120.5c1.967-.239 3.8.094 5.5 1 .498 3.317.665 6.65.5 10h-7a39.704 39.704 0 0 1 1-11z"/><path style="opacity:1" fill="#fbfbfb" d="M52.5 121.5c.996-.086 1.83.248 2.5 1 .497 2.31.663 4.643.5 7h-4c-.221-2.779.112-5.446 1-8z"/><path style="opacity:1" fill="#64605e" d="M110.5 122.5v7h3v-6c.968 2.107 1.302 4.441 1 7h-5c-.306-2.885.027-5.552 1-8z"/><path style="opacity:1" fill="#0b0c0b" d="M66.5 119.5a18.476 18.476 0 0 1 3.5 2c.498 3.317.665 6.65.5 10h-7c-.165-3.35.002-6.683.5-10 .995-.566 1.828-1.233 2.5-2z"/><path style="opacity:1" fill="#625f5d" d="M68.5 122.5c.973 2.448 1.306 5.115 1 8h-5c-.302-2.559.032-4.893 1-7v6h3v-7z"/><path style="opacity:1" fill="#f7f7f6" d="M68.5 122.5v7h-3v-6c.553-2.052 1.553-2.385 3-1z"/><path style="opacity:1" fill="#191817" d="M97.5 119.5a18.476 18.476 0 0 1 3.5 2c.498 3.317.665 6.65.5 10h-7c-.165-3.35.002-6.683.5-10 .995-.566 1.828-1.233 2.5-2z"/><path style="opacity:1" fill="#fbfbfb" d="M97.5 121.5c1.25.077 2.083.744 2.5 2 .495 1.973.662 3.973.5 6h-4c-.221-2.779.112-5.446 1-8z"/><path style="opacity:1" fill="#625e5c" d="M33.5 69.5c.997 21.494 1.33 43.16 1 65-5.858.322-11.525-.011-17-1h16v-64z"/></svg>
